X:1
T:Moderato
T:Moderato
T:Giovanni Battista Pergolesi
C:Giovanni Battista Pergolesi
%%score { 1 | 2 | 3 | 4 }
L:1/8
Q:1/2=72
M:2/2
K:Eb
V:1 treble nm="Klavier" snm="Klav."
V:2 treble 
V:3 bass 
V:4 bass 
V:1
"^festlich, fröhlich"!f! E2 | (B3 c B2) cd | e2 A4 G2 | (c2 B>c) (B2 A2) |!>(! G4!>)! z2 E2 | %5
 (B3 c B2) cd | e2 A4 G2 | F2 cA F2 F2 |!>(! F4!>)! z4 | z8 | z4 z!<(! B(cd!<)! | e2) E2 (ed e2) | %12
!>(! (e4!>)! !breath!d2)!mp! F2 | G8- | G8 | F8- | F8 |!>(! E8- | E8!>)! | %19
!p! !breath!D2 F4!<(! F2 | F2 F4!<)!!mf! F2- | F2 E2!<(! D(FGE)!<)! |!f! D4!>)!!>(! C4 | %23
!p! B,2 z2 z4 | z8 | z4 z2!mf! (BG) |!<(! F2 E2 D(FGE)!<)! |!f!!f! D4!>(! C4!>)! |!p! B,6 :| %29
!mf! B,2 | (F3 G F2) G=A | B2 E4 D2 | (G2 F>G) (F2 E2) |!>(! D4!>)! z2!mf! B,2 | (F3 G F2) G=A | %35
 B2 E4 D2 | C2 GE C2 C2 |!>(! C4!>)! z2!p! F2 | B2 B4 (B2- | B2 EB) !breath!B2!<(! =B2 | %40
 c2 c4 (c2- | c2 Fc) !breath!c2 ^c2 | d2 d4 d2-!<)! | d2!>(! Gd !breath!d2!>)!!mp! B2 | e8- | e8 | %46
 d8- | d8 | c8- |!p!!>(! c8!>)! |!p! !breath!B2!<(! (ed) d2 z2 | z2 (ed) d2!<)! z2 | %52
!f! z2 (ec)!>(! B2 =A2 | G4!>)! z4 | z8 | z8 | z8 | z8 |!<(! z2 (G(B A2)) (GB!<)! | %59
!>(! A4) z4!>)! |!<(! z2 (FA G2) (FA!<)! |!>(! G4) z2!>)!!f! E2 | (B3 c B2) cd | e2 A4 G2 | %64
 F2 cA F2 F2 |!>(! F4!>)! z4 |!mp! c8- | c8 | B8- | B8 | A8- |!>(! A8!>)! | %72
!p! !breath!G2 B4!<(! B2- | B2 B4!<)!!mf! B2- | B2!<(! A2 G(Bc!<)!A) |!f! G4!>(! F4!>)! | %76
!p! !breath!E2 B4!<(! B2- | B2 B4!<)!!mf! B2- | B2 A2 !breath!G2 (ec) |!<(! B2 A2 G(Bc!<)!A) | %80
!f! G4 F4 | E6 |] %82
V:2
!f! E2 | G4 F4 | E2 E4 E2 | E2 E4 D2 |!>(! E4!>)! z2 E2 | G4 F4 | E2 E4 E2 | E2 E4 E2 | %8
!>(! D4!>)! z2 F2 | B2 B,2 (B=A B2) |!>(! (B4 =A2)!>)! z2 | z2 E2 E2 F2 | F2 FD !breath!F2 z2 | %13
!mp! (B,8 | E8) | (=A,8 | D8) |!>(! (G,8 | C8)!>)! |!p! !breath!B,2 (DC C2)!<(! E2 | %20
 D2 (FD) C2!<)!!mf! E2 | D2 C2!<(! B,4!<)! |!f! B,4!>)!!>(! =A,4 |!p! !breath!B,2!<(! F4 F2- | %24
 F2 F4!<)!!mf! F2- | F2 E2 !breath!D2 (GE) |!<(! D2 C2 B,4!<)! |!f! B,4!>(! =A,4!>)! |!p! B,6 :| %29
!mf! B,2 | D4 C4 | E2 B,4 B,2 | E2 B,4 =A,2 |!>(! B,4!>)! z2!mf! B,2 | D4 C4 | E2 B,4 B,2 | %36
 B,2 B,4 B,2 |!>(! =A,4!>)! z4 | z2!p! (BG F2) A2 | (G4 F4 | !breath!=E2)!<(! (c=A G2) (B2 | %41
 (=A4) G4 | !breath!^F2) (dB =A2) c2!<)! |!>(! B4 z4!>)! |!mp! (G8 | =A8) | (F8 | G8) | (=E8 | %49
!>(! ^F8!>)! |!p! G4) z2!<(! ^F2 | G4!<)! z2!f! ^F2 | G2 G2!>(! G2 ^F2 | G4!>)! z2!mf! D2 | %54
!<(! G2 G4 G2-!<)! | G!>(!EDC !breath!C2!>)! C2 |!<(! F2 F4 F2-!<)! | F!>(!DCB, B,2!>)! z2 | z8 | %59
 z8 | z8 | z4 z2!f! E2 | (G4 F4) | E2 E4 E2 | E2 E4 E2 |!>(! D4 z2!>)!!f! E2 | (A>G A2) z GFE | %67
 (D>C D2) z2 D2 | (G>F G2) z FED | (C>B, C2) z2 C2 | (F>E F2) z EDC | (B,>=A, B,2) z2!p! B,2 | %72
 !breath!E2 GF F2!<(! A2 | G2 (BG) F2!<)!!mf! A2 |!<(! G2 F2 E4!<)! |!f! E4!>(! D4!>)! | %76
!p! !breath!E2 (GF) F2!<(! A2 | G2 (BG F2)!mf! A2!<)! | G2 F2 !breath!E2 (cA) |!<(! G2 F2 E4!<)! | %80
!f! E4 D4 | B,6 |] %82
V:3
 z2 |!f! B,4 F,4 | A,2 A,4 B,2 | E,2 G,2 A,2 B,2 |!>(! B,2 E2 B,2!>)! z2 | B,4 F,4 | A,2 A,4 B,2 | %7
 C2 C4 C2 |!>(! B,2 D2 B,2!>)! z2 | z2 D2 F2 C2 | C6 z2 | z2 B,2 B,2 C2 | !breath!B,6!f! B,2 | %13
 (E>D E2) z DCB, | (=A,>G, A,2) z2 A,2 | (D>C D2) z CB,=A, | (G,>F, G,2) z2 G,2 | %17
!>(! (C>B, C2) z B,=A,G, | (F,>E, F,2) z2 F,2!>)! |!p! !breath!B,4 z2!<(! C2 | B,4!<)! z2!mf! C2 | %21
 B,2 =A,2!<(! F,2 (B,G,)!<)! |!f! F,4!>)!!>(! F,4 |!p! !breath!D,2!<(! (DC C2) E2 | %24
 D2 (FD C2)!<)!!mf! E2 | D2 =A,2 !breath!B,2 B,2 |!<(! B,2 =A,2 F,2 (B,G,)!<)! | %27
!f! F,4!>(! F,4!>)! |!p! D,6 :|!mf! B,2 | B,4 F,4 | E,2 E,4 B,2 | B,2 F,4 F,2 | %33
!>(! F,2 B,2!>)! F,2 z2 |!mf! B,4 F,4 | E,2 E,4 B,2 | G,2 G,4 G,2 | !breath!F,2!p! F,2 (=A,2 C2) | %38
 B,2 G,B, B,2 D2 | E2 B,2 B,2 z2 | G,2!<(! (=A,C C2) =E2 | F2 C2 C2 z2 | =A,2 (B,D D2) D2!<)! | %43
 D2!>(! B,C !breath!D2!>)!!f! D2 | (C>=B, C2) z _B,=A,G, | (F,>=E, F,2) z2 F,2 | %46
 (B,>=A, B,2) z A,G,F, | (E,>D, E,2) z2 E,2 | (=A,>G, A,2) z G,^F,=E, | %49
!>(! (D,>C, D,2)!>)! z2!p! D,2 | G,4 z2!<(! C2 | B,4!<)! z2!f! C2 | B,2 G,2!>(! D2 D2 | %53
 B,4!>)! z4 | z2!mf! (D!<(!F E2) (DF!<)! |!>(! E4)!>)! z4 |!<(! z2 (CE D2) (CE!<)! | %57
!>(! D4)!>)! z2 G,2 |!<(! C2 C4 C2-!<)! | C!>(!A,G,F, !breath!F,2!>)! F,2 |!<(! B,2 B,4 B,2-!<)! | %61
 B,!>(!G,F,E, E,2!>)! z2 |!f! B,4 F,4 | A,2 A,4 B,2 | C2 C4 C2 | %65
!>(! B,2 D2!>)! !breath!B,2!mp! B,2 | (E8 | A,8) | (D8 | G,8) | (C8 |!>(! F,8)!>)! | %72
!p! B,4 z2!<(! B,2 | E4!<)! z2!mf! B,2 |!<(! E2 D2 B,2 (EC)!<)! |!f! B,4!>(! B,4!>)! | %76
!p! G,4 z2!<(! B,2 | E4!<)! z2!mf! B,2 | E2 D2 !breath!B,2 E2 |!<(! E2 D2 B,2 (EC)!<)! | %80
!f! B,4 B,4 | G,6 |] %82
V:4
 z2 |!f! E,4 D,4 | C,2 C,2 C,2 B,,2 | A,,2 G,,2 F,,2 B,,2 |!>(! E,2 E,2 E,2!>)! z2 | E,4 D,4 | %6
 C,2 C,2 C,2 B,,2 | A,,2 A,,2 =A,,2 A,,2 |!>(! B,,2 B,2 B,,2!>)! z2 | z2 G,2 D,2 =E,2 | %10
 F,2 F,2 F,2 z2 | z2 G,,2 G,,2 =A,,2 | B,,2 B,,2 !breath!B,,2!mp! D,2 | E,2 E,2 E,2 E,2 | %14
 C,2 C,2 C,2 C,2 | D,2 D,2 D,2 D,2 | B,,2 B,,2 B,,2 B,,2 |!>(! C,2 C,2 C,2 C,2 | %18
 =A,,2 A,,2 A,,2 A,,2!>)! |!p! !breath!B,,4 z2!<(! =A,,2 | B,,4!<)! z2!mf! =A,,2 | %21
 B,,2 C,2!<(! D,2 E,2!<)! |!f! F,2 E,2!>(! F,2!>)! F,,2 |!p! B,,4 z2!<(! =A,,2 | %24
 B,,4 z2!<)!!mf! =A,,2 | B,,2 C,2 !breath!D,2 E,2 |!<(! B,,2 C,2 D,2 E,2!<)! | %27
!f! F,2 E,2!>(! F,2 F,,2!>)! |!p! B,,6 :| z2 | B,,4 =A,,4 | G,,2 G,2 G,2 F,2 | E,2 D,2 C,2 F,2 | %33
!>(! B,,2 B,,2 B,,2!>)! z2 |!mf! B,,4 =A,,4 | G,,2 G,2 G,2 F,2 | E,2 E,2 =E,2 E,2 | %37
!>(! !breath!F,4!p! E,4!>)! | D,2 E,2 D,2 B,,2 | E,2 E,2 D,2 D,2 | C,2!<(! F,2 =E,2 C,2 | %41
 F,2 F,2 =E,2 E,2 | D,2 G,2 ^F,2 D,2!<)! | G,2!>(! G,,=A,, !breath!B,,2!>)!!mp! G,,2 | %44
 C,2 C,2 C,2 C,2 | C,2 C,2 C,2 C,2 | B,,2 B,,2 B,,2 B,,2 | B,,2 B,,2 B,,2 B,,2 | %48
 =A,,2 A,,2 A,,2 A,,2 |!>(! =A,,2 A,,2 A,,2 A,,2!>)! |!p! G,,4 z2!<(! =A,,2 | %51
 G,,4!<)! z2!f! =A,,2 | G,,2 C,2!>(! D,2 D,2 | G,,2 G,2 G,,2!>)! z2 | %54
 z2!mf! (=B,,2!<(! C,2) (B,,2!<)! |!>(! C,4)!>)! z4 |!<(! z2 (=A,,2 B,,2) (A,,2!<)! | %57
!>(! B,,4)!>)! z4 |!<(! z2 (=E,2 F,2) (E,2!<)! |!>(! F,4) z4!>)! |!<(! z2 (D,2 E,2) D,2!<)! | %61
!>(! E,4 z4!>)! |!f! E,4 D,4 | C,2 C,2 C,2 B,,2 | A,,2 A,,2 =A,,2 A,,2 | %65
!>(! B,,2 B,2 !breath!G,2!>)!!mp! G,2 | A,2 A,2 A,2 A,2 | F,2 F,2 F,2 F,2 | G,2 G,2 G,2 G,2 | %69
 E,2 E,2 E,2 E,2 | F,2 F,2 F,2 F,2 |!>(! D,2 D,2 D,2 D,2!>)! |!p! E,4 z2!<(! D,2 | %73
 E,4!<)! z2!mf! D,2 |!<(! E,2 F,2 G,2 A,2!<)! |!f! B,2 A,2!>(! B,2 B,,2!>)! |!p! E,4 z2!<(! D,2 | %77
 E,4!<)! z2!mf! D,2 | E,2 F,2 !breath!G,2 A,2 |!<(! E,2 F,2 G,2 A,2!<)! |!f! B,2 A,2 B,2 B,,2 | %81
 E,6 |] %82

